icons/graph-box-mean-lines-32.svg

<?xml version="1.0" encoding="UTF-8"?><svg id="icons" xmlns="http://www.w3.org/2000/svg" viewBox="0 0 32 32"><defs><style>.cls-1{fill:none;}.cls-1,.cls-2{stroke-width:0px;}</style></defs><rect class="cls-1" width="32" height="32"/><path class="cls-2" d="m3,29h27v1H2V2h1v27ZM30,10v6h-3v8h1v1h-3v-1h1.00006v-8h-1.84625l-3.15381,2.45288v4.54712h-3v3h1v1h-3v-1h1v-3h-3v-5.06097l-3.30634-2.93909h-1.69366v6.00006h1v1h-3v-1h1v-6.00006h-3v-7h3v-3h-1v-.99994h3v.99994h-.99994v3h2.99994v2.00006h5.00006v-4h-1.00006v-1h3v1h-1v3.73065l8.00006-3.55579v-2.17499h-1.00006v-1h3v1h-1v6.00012h3Zm-19-1h-5v5h3.56879l-1.40082-1.24524.67096-.75476,2.16107,1.92084v-2.92084h-3v-1h3v-1Zm3,5h3.00006v-3h-5.00006v3.80969l2,1.77771v-2.5874Zm6,5.23065l-2.42517,1.88617-2.57483-2.28882v3.172h5v-2.76935Zm0-4.23065h-5v2.47626l2.61829,2.32727,2.38171-1.85248v-2.95105Zm3-5h3.00006v-2.73053l-8.00006,3.55542v3.17511h3v3.17322l2-1.5556v-5.61761Zm6,1h-5v3.83984l2.37939-1.85071.62061.79724-1.56042,1.21362h3.56042v-4Z"/></svg>

<svg xmlns="http://www.w3.org/2000/svg" viewBox="0 0 32 32"><path stroke-width="0" fill="none" d="M0 0h32v32H0z"/><path d="M3 29h27v1H2V2h1v27zm27-19v6h-3v8h1v1h-3v-1h1v-8h-1.846L21 18.453V23h-3v3h1v1h-3v-1h1v-3h-3v-5.061l-3.306-2.94H9V21h1v1H7v-1h1v-6H5V8h3V5H7V4h3v1H9v3h3v2h5V6h-1V5h3v1h-1v3.73l8-3.555V4h-1V3h3v1h-1v6h3zM11 9H6v5h3.569l-1.401-1.245.67-.755L11 13.92V11H8v-1h3V9zm3 5h3v-3h-5v3.81l2 1.777V14zm6 5.23l-2.425 1.887L15 18.828V22h5v-2.77zM20 15h-5v2.476l2.618 2.328L20 17.95V15zm3-5h3V7.27l-8 3.555V14h3v3.173l2-1.555V10zm6 1h-5v3.84l2.38-1.85.62.796L25.44 15H29v-4z" stroke-width="0"/></svg>
